src/images/icon/icon_label_query.svg

<svg height="20" viewBox="0 0 20 20" width="20" xmlns="http://www.w3.org/2000/svg"><path d="m9.99997494 2c-4.41828632 0-7.99997494 3.58170882-7.99997494 7.99997494 0 4.41828286 3.58167191 8.00002506 7.99995824 8.00002506 4.41836986 0 8.00004176-3.5817422 8.00004176-8 0-4.41825777-3.5816385-8-8.00002506-8zm.77637416 12.6162671c0 .2209125-.1790335.4000447-.3999979.4000447h-1.19999374c-.2208642 0-.3999645-.1791155-.3999645-.400028v-1.199967c0-.2209626.17908359-.4000614.3999645-.4000614h1.19999374c.2209477 0 .3999979.1790821.3999979.4000614zm1.982833-5.50593929c-.1607911.22924848-.525724.52135945-.982621.877519l-.5063121.34939389c-.2459059.1907424-.4639969.4128076-.5446347.6670474-.0275642.0866343-.0482122.2289979-.0621112.3827545-.0070164.0773796-.0762275.2352124-.2380209.2352124h-1.30216489c-.21165944 0-.24948083-.1657846-.24593925-.2468894.0234212-.5314997.07213461-1.003361.28868877-1.2573836.43843741-.51407586 1.43605997-1.15392684 1.43605997-1.15392684.151887-.11461589.2748566-.23922161.3678564-.37500327.1690603-.23310742.3093202-.48911798.3093202-.76895047 0-.32162944-.0940523-.61480956-.2827249-.88017515-.1880211-.26432986-.532473-.39675372-1.03156829-.39675372-.4913105 0-.83960471.1630783-1.04489933.48906787-.15165306.24085874-.24714204.46232249-.28666739.70328146-.01408279.08528117-.06876009.26489784-.25105115.26489784h-1.27002344c-.27042959 0-.32998491-.17523985-.32216671-.25971916.09789458-1.0646364.51394653-1.7920572 1.24957583-2.25914073.50021457-.32157933 1.11563067-.48295369 1.8456302-.48295369.95923318 0 1.75547028.22864708 2.39028158.68660946.6336752.45734428.9514317 1.13503304.9514317 2.03358416 0 .55027652-.1930829 1.01430297-.4679227 1.39152805z" fill="#b6c2cd"/></svg>

<?xml version="1.0" encoding="UTF-8"?>
<svg width="20px" height="20px" viewBox="0 0 20 20" version="1.1" xmlns="http://www.w3.org/2000/svg" xmlns:xlink="http://www.w3.org/1999/xlink">
    
    <g id="Dashboard" stroke="none" stroke-width="1" fill="none" fill-rule="evenodd">
        <g id="00-切图" transform="translate(-1099.000000, -299.000000)" fill="#B6C2CD" fill-rule="nonzero">
            <g id="疑问" transform="translate(1099.000000, 299.000000)">
                <path d="M9.99997494,2 C5.58168862,2 2,5.58170882 2,9.99997494 C2,14.4182578 5.58167191,18 9.99995824,18 C14.4183281,18 18,14.4182578 18,10 C18,5.58174223 14.4183615,2 9.99997494,2 Z M10.7763491,14.6162671 C10.7763491,14.8371796 10.5973156,15.0163118 10.3763512,15.0163118 L9.17635746,15.0163118 C8.95549326,15.0163118 8.77639296,14.8371963 8.77639296,14.6162838 L8.77639296,13.4163168 C8.77639296,13.1953542 8.95547655,13.0162554 9.17635746,13.0162554 L10.3763512,13.0162554 C10.5972989,13.0162554 10.7763491,13.1953375 10.7763491,13.4163168 L10.7763491,14.6162671 Z M12.7591821,9.11032781 C12.598391,9.33957629 12.2334581,9.63168726 11.7765611,9.98784681 L11.270249,10.3372407 C11.0243431,10.5279831 10.8062521,10.7500483 10.7256143,11.0042881 C10.6980501,11.0909224 10.6774021,11.233286 10.6635031,11.3870426 C10.6564867,11.4644222 10.5872756,11.622255 10.4254822,11.622255 L9.12331731,11.622255 C8.91165787,11.622255 8.87383648,11.4564704 8.87737806,11.3753656 C8.90079926,10.8438659 8.94951267,10.3720046 9.16606683,10.117982 C9.60450424,9.60390614 10.6021268,8.96405516 10.6021268,8.96405516 C10.7540138,8.84943927 10.8769834,8.72483355 10.9699832,8.58905189 C11.1390435,8.35594447 11.2793034,8.09993391 11.2793034,7.82010142 C11.2793034,7.49847198 11.1852511,7.20529186 10.9965785,6.93992627 C10.8085574,6.67559641 10.4641055,6.54317255 9.96501021,6.54317255 C9.47369971,6.54317255 9.1254055,6.70625085 8.92011088,7.03224042 C8.76845782,7.27309916 8.67296884,7.49456291 8.63344349,7.73552188 C8.6193607,7.82080305 8.5646834,8.00041972 8.38239234,8.00041972 L7.1123689,8.00041972 C6.84193931,8.00041972 6.78238399,7.82517987 6.79020219,7.74070056 C6.88809677,6.67606416 7.30414872,5.94864336 8.03977802,5.48155983 C8.53999259,5.1599805 9.15540869,4.99860614 9.88540822,4.99860614 C10.8446414,4.99860614 11.6408785,5.22725322 12.2756898,5.6852156 C12.909365,6.14255988 13.2271215,6.82024864 13.2271215,7.71879976 C13.2271215,8.26907628 13.0340386,8.73310273 12.7591988,9.11032781 L12.7591821,9.11032781 L12.7591821,9.11032781 Z" id="形状"></path>
            </g>
        </g>
    </g>
</svg>
